X:128
T:Lark in the morn - Gilbert
%%VWML:SBG-1-2-539-0
F:http://www.vwml.org/record/SBG/1/2/539
Z:Original Sibelius transcriptions by M. & S. Graebe
M:4/4
I:linebreak $
K:F
V:1 treble nm="P1"
V:1
 C2 | F2 FC F2 FC | FGAB c2 A2 | AGAB cAGF | E2 D2 C2 cB |$ AGFE D2 EF | GABG FE DC | FGAB ccdB | %8
 AGFE F4 | %9
T:Lark in the morn - Old
F:http://www.vwml.org/record/SBG/1/2/539
Z:Original Sibelius transcriptions by M. & S. Graebe
M:4/4
I:linebreak $
K:Ab
V:1 treble nm="P1"
V:1
 C | F2 CF A2 F F | Gc BG F3 C | F2 CF A2 F F | Gc BG F3 c |$ cA FA c2 c c | df ed c2 c c | %7
 fe dc c2 GB | A2 G2 F4 | %9
T:Lark in the morn - Hard
F:http://www.vwml.org/record/SBG/1/2/539
Z:Original Sibelius transcriptions by M. & S. Graebe
M:4/4
I:linebreak $
K:F
V:1 treble nm="P1"
V:1
 D | A2 GA F2 DE | FG EF D2 FG | A2 dc A2 GF | G2 A A D2 FG | A2 GF c2 DE |$ FE D^C A3 A | %7
 d2 cB A2 GF | D2 ^C2 D3 A, | D2 F F G2 A A |"^rall." (F2 E2) D2 z x | %11
T:Lark in the morn - Kidson
F:http://www.vwml.org/record/SBG/1/2/539
Z:Original Sibelius transcriptions by M. & S. Graebe
M:4/4
I:linebreak $
K:F
V:1 treble nm="P1"
V:1
 D | A2 A A A A DE | FG E F D3 F/G/ | A c A G F2 E D/ D/ | A A A F E3 F/ G/ |$ A A A c A G2 F/ D/ | %6
 A A A F E2 D A, | D2 F3/2 G/ A F E D | A,>D D3/2 E/ D3 x | %9
T:Lark in the morn - Dingle
F:http://www.vwml.org/record/SBG/1/2/539
Z:Original Sibelius transcriptions by M. & S. Graebe
M:6/8
I:linebreak $
K:D
V:1 treble nm="P1"
V:1
 B | AFG EFE | DFA B2 d | d=cB AGA | EFG A2 F |$ Ade dAB | =cdc B2 A | d=cB Add | DDD G | F G | %10
w: |||||||||And her|
 A3 D3 | %11
w: oles mine|




